X:340
T:I'll Mak' Ye Be Fain to Follow Me
R:Jig
B:The Athole Collection
M:6/8
L:1/8
K:C
C|E/F/GG c2e|dDD D2C|E/F/GG cdc|BAB cGE|FdF EcE|dDD D2C|
E/F/GG c2G|ECC C2:|
f|ega gec|f2e d2c|ega gec|gea gec|fga gec|f2e d2F|E/F/GG c2G|
ECC C2f|ega gec|f2e d2c|ega gec|gea gec|fga gec|fef dgf|ece fdf|ecc c2||

